src/assets/icons/food-drink,fancy,fire.svg

<svg width="48" height="48" viewBox="0 0 48 48" fill="none" xmlns="http://www.w3.org/2000/svg">
<path opacity="0.6" d="M28.7416 12.4908C38.3556 25.6164 34.3497 42.872 23.884 42.872C13.3999 42.872 11.2504 26.5179 19.2347 18.112C19.5208 17.8108 20.0268 18.0001 20.1465 18.3979C21.3652 22.448 27.4806 20.5863 27.8154 12.8126C27.8362 12.3299 28.4561 12.101 28.7416 12.4908Z" fill="black"/>
<path opacity="0.2" d="M30.3082 1.15669C44.7126 19.5002 38.9613 44 23.6985 44C8.41604 44 5.39402 20.8015 17.3038 9.19369C17.5978 8.90716 18.0939 9.10143 18.1881 9.50101C19.6693 15.7865 29.236 13.1166 29.3958 1.49134C29.4024 1.01225 30.0123 0.779856 30.3082 1.15669Z" fill="black"/>
<path opacity="0.2" d="M30.3082 1.15669C44.7126 19.5002 38.9613 44 23.6985 44C8.41604 44 5.39402 20.8015 17.3038 9.19369C17.5978 8.90716 18.0939 9.10143 18.1881 9.50101C19.6693 15.7865 29.236 13.1166 29.3958 1.49134C29.4024 1.01225 30.0123 0.779856 30.3082 1.15669Z" fill="black"/>
<path opacity="0.2" d="M21.4785 41C22.2231 41.4721 23.1186 41.7436 24.1595 41.7436C25.1119 41.7436 25.9622 41.477 26.6959 41H21.4785Z" fill="black"/>
<path d="M26.533 24.2567C32.0677 31.3789 30.0977 41.7437 24.159 41.7437C18.0924 41.7437 16.9642 32.5215 21.866 28.1098C21.9154 28.0653 21.9743 28.032 22.0369 28.0092C23.6408 27.425 24.8658 25.776 25.7159 24.3261C25.8933 24.0236 26.3178 23.9798 26.533 24.2567Z" fill="black"/>
</svg>

<svg xmlns="http://www.w3.org/2000/svg" width="48" height="48" fill="none" viewBox="0 0 48 48">
  <path fill="#000" d="M28.742 12.49c9.614 13.126 5.608 30.382-4.858 30.382-10.484 0-12.634-16.354-4.65-24.76.287-.301.793-.112.912.286 1.22 4.05 7.335 2.188 7.67-5.585.02-.483.64-.712.926-.322z" opacity=".6"/>
  <path fill="#000" d="M30.308 1.157C44.713 19.5 38.961 44 23.698 44 8.416 44 5.395 20.802 17.304 9.194c.294-.287.79-.093.884.307 1.481 6.286 11.048 3.616 11.208-8.01.006-.479.616-.711.912-.334z" opacity=".2"/>
  <path fill="#000" d="M30.308 1.157C44.713 19.5 38.961 44 23.698 44 8.416 44 5.395 20.802 17.304 9.194c.294-.287.79-.093.884.307 1.481 6.286 11.048 3.616 11.208-8.01.006-.479.616-.711.912-.334z" opacity=".2"/>
  <g>
    <path fill="#000" d="M21.479 41c.744.472 1.64.744 2.68.744A4.58 4.58 0 0026.697 41h-5.218z" opacity=".2"/>
    <path fill="#000" d="M26.533 24.257c5.535 7.122 3.565 17.487-2.374 17.487-6.067 0-7.195-9.222-2.293-13.634a.52.52 0 01.17-.1c1.605-.585 2.83-2.234 3.68-3.684.177-.302.602-.346.817-.07z"/>
  </g>
</svg>
